X:4
T:With the Best of Intentions
R:reel
C: 1974, 2010 L.E. McCullough  
M:4/4 
L:1/8
K:Ador
|:~A3B d~g3|a~g3 edBd|~A3B d~g3|gedB BAAG|
~A3B d~g3|a~g3 b~g3|a~g3 edBd|gBdB BA~A2:|
|:eaag agef|geaf gedg|eaag ageg|dgbg ~a3g|
~a3b agef|geaf gedB|~A3e ~g3e|dBgB BA~A2:|
<end>
<start>
